X:20
T:Bold trooper - Woodrich
%%VWML:SBG-1-2--0
F:http://www.vwml.org/record/SBG/1/2/
Z:Original Sibelius transcriptions by M. & S. Graebe
M:6/8
I:linebreak $
K:E
V:1 treble nm="P1"
V:1
 B | G G G G A B | A G A F2 B | G G G G F G | A G A F2 B | G G G G A B |$ A G A F2 A/ A/ | %7
 G F E D C D | B2 A2 z B | G A G F E F | E4 z x | %11

